shader_type canvas_item;

void vertex() {
	// Called for every vertex the material is visible on.
}

void fragment() {
	// Called for every pixel the material is visible on.
	vec4 color = texture(TEXTURE, UV);
	color.r = UV.x;
	//color.g = 1.0;
	//color.b = 0.0;
	//color.a = UV.y;
	COLOR = color;
	
}

//void light() {
	// Called for every pixel for every light affecting the CanvasItem.
	// Uncomment to replace the default light processing function with this one.
//}
